/* XPM */
static char * folder_link_xpm[] = {
"64 64 11 1",
" 	c None",
".	c #6DCCF9",
"+	c #72CEF9",
"@	c #73CEF9",
"#	c #72CFF9",
"$	c #BABDB6",
"%	c #EEEEEC",
"&	c #555753",
"*	c #2E3436",
"=	c #888A85",
"-	c #D3D7CF",
"                                                                ",
"                                                                ",
"                                                                ",
"                                                                ",
"                                                                ",
"                                                                ",
"        ........................                                ",
"       .+++++++++++++++++++++++.@                               ",
"      .+########################.@                              ",
"     .+##########################.@                             ",
"    .+############################.@                            ",
"   .+##############################.@                           ",
"  .+################################.@                          ",
" .+##################################.@                         ",
".+.$$$$$$$$$$$$$$$$$$$$$$$$$$$$$$$$$$.........................  ",
".++.%%%%%%%%%%%%%%%%%%%%%%%%%%%%%%%%.++++++++++++++++++++++++.@ ",
".+#+.%%%%%%%%%%%%%%%%%%%%%%%%%%%%%%.+#########################.@",
".+##+..............................+##########################.@",
".+###++++++++++++++++++++++++++++++###########################.@",
".+############################################################.@",
".+############################################################.@",
".+############################################################.@",
".+############################################################.@",
".+############################################################.@",
".+############################################################.@",
".+############################################################.@",
".+############################################################.@",
".+############################################################.@",
".+############################################################.@",
".+############################################################.@",
".+############################################################.@",
".+############################################################.@",
".+############################################################.@",
".+############################################################.@",
".+############################################################.@",
".+############################################################.@",
".+############################################################.@",
".+############################################################.@",
".+############################################################.@",
".+############################################################.@",
".+############################################...............#.@",
".+############################################.%%%%%%%%%%%%%+#.@",
".+############################################.%%%&**&%%%%%%+#.@",
".+############################################.%%&=&**&%%%%%+#.@",
".+############################################.%%=%%***$%%%%+#.@",
".+############################################.%%$%%$***%&%%+#.@",
".+############################################.%%-%%%&**&*%%+#.@",
".+############################################.%%%%&******%%+#.@",
".+############################################.%%%%%&*****%%+#.@",
".+############################################.%%%%%%&****%%+#.@",
".+############################################.%%%%%%%&***%%+#.@",
".+############################################.%%%%%%%%&**%%+#.@",
".+############################################.%%%%%%%%%&*%%+#.@",
".+############################################.%%%%%%%%%%%%%+#.@",
".+############################################+++++++++++++++#.@",
".+############################################################.@",
"...............................................................@",
"@@@@@@@@@@@@@@@@@@@@@@@@@@@@@@@@@@@@@@@@@@@@@@@@@@@@@@@@@@@@@@@@",
"                                                                ",
"                                                                ",
"                                                                ",
"                                                                ",
"                                                                ",
"                                                                "};
