/* XPM */
static char *folder_xpm[] = {
/* columns rows colors chars-per-pixel */
"64 64 29 1 ",
"  c #6BCCF9",
". c #6DCCF9",
"X c #6FCDF9",
"o c #70CDF9",
"O c #70CEF9",
"+ c #72CEF9",
"@ c #73CEF9",
"# c #72CFF9",
"$ c #73CFF9",
"% c #75CFF9",
"& c #77D0FA",
"* c #79D0F9",
"= c #79D1F9",
"- c #7AD0F8",
"; c #7BD0F8",
": c #79D1FA",
"> c #88D7FC",
", c #8CD9FD",
"< c #8FDAFD",
"1 c #94DBFD",
"2 c #94DCFE",
"3 c #95DCFE",
"4 c #94DCFF",
"5 c #95DCFF",
"6 c #95DDFF",
"7 c #96DCFE",
"8 c #96DDFE",
"9 c #97DDFF",
"0 c None",
/* pixels */
"0000000000000000000000000000000000000000000000000000000000000000",
"0000000000000000000000000000000000000000000000000000000000000000",
"0000000000000000000000000000000000000000000000000000000000000000",
"0000000000000000000000000000000000000000000000000000000000000000",
"0000000000000000000000000000000000000000000000000000000000000000",
"0000000000000000000000000000000000000000000000000000000000000000",
"0000000000000000000000000000000000000000000000000000000000000000",
"0000000000000000000000000000000000000000000000000000000000000000",
"0000000000000000000000000000000000000000000000000000000000000000",
"0000444444999999999990000000000000000000000000000000000000000000",
"0009999999999999999999000000000000000000000000000000000000000000",
"0009999999999999999999900000000000000000000000000000000000000000",
"0009999999999999999999900000000000000000000000000000000000000000",
"0009999999999999999999999999999999999999999999999999999999900000",
"0009999999999999999999999999999999999999999999999999999999999000",
"0009999999999999999999997794779497774999999999999999999999999000",
"0001&.&.&.&O.&OO$$$$$$$$$$$$ $ $OOOOOOOOOOOOOO.+++.&.OOOOOO&,400",
"000.                                          . .            >00",
"000                                                          +00",
"000.                                                          00",
"000                                                           00",
"000                                                           00",
"000                                                           00",
"000                                                           00",
"000                                                           00",
"000                                                           00",
"000                                                           00",
"000                                                           00",
"000                                                           00",
"000                                                           00",
"000                                                           00",
"000                                                           00",
"000                                                           00",
"000                                                           00",
"000                                                           00",
"000                                                           00",
"000                                                           00",
"000                                                           00",
"000                                                           00",
"000                                                           00",
"000                                                           00",
"000                                                           00",
"000                                                           00",
"000                                                           00",
"000                                                           00",
"000                                                           00",
"000                                                           00",
"000                                                           00",
"000                                                           00",
"000                                                           00",
"000                                                           00",
"000 ..++++++++++++++++++++++++++++++++++++++++++.&.& &.&O$$   00",
"000  .++++++++++++++++++++++++++++++++++++++++++& &.&.&.+++   00",
"000  &================;=;=;=;;;=;;;;======================%   00",
"000                                              .           000",
"0000000000000000000000000000000000000000000000000000000000000000",
"0000000000000000000000000000000000000000000000000000000000000000",
"0000000000000000000000000000000000000000000000000000000000000000",
"0000000000000000000000000000000000000000000000000000000000000000",
"0000000000000000000000000000000000000000000000000000000000000000",
"0000000000000000000000000000000000000000000000000000000000000000",
"0000000000000000000000000000000000000000000000000000000000000000",
"0000000000000000000000000000000000000000000000000000000000000000",
"0000000000000000000000000000000000000000000000000000000000000000"
};
