/* XPM */
static char *folder_up_xpm[] = {
/* columns rows colors chars-per-pixel */
"64 64 63 1 ",
"  c #55BEED",
". c #56BEED",
"X c #57BFEE",
"o c #58BFEE",
"O c #58C0EE",
"+ c #58C0EF",
"@ c #59C0EF",
"# c #5AC1EF",
"$ c #5AC1F0",
"% c #5BC1F0",
"& c #5BC2F0",
"* c #5CC2F1",
"= c #5CC3F1",
"- c #5DC3F1",
"; c #5EC3F1",
": c #5EC3F2",
"> c #5FC4F2",
", c #60C5F3",
"< c #61C5F3",
"1 c #62C6F4",
"2 c #64C7F5",
"3 c #65C8F5",
"4 c #65C8F6",
"5 c #66C8F6",
"6 c #66C9F6",
"7 c #67C9F6",
"8 c #67C9F7",
"9 c #67CAF7",
"0 c #68CAF7",
"q c #69CAF7",
"w c #69CAF8",
"e c #69CBF8",
"r c #6ACBF8",
"t c #6ACCF9",
"y c #6BCCF9",
"u c #6DCCF9",
"i c #6FCDF9",
"p c #70CDF9",
"a c #70CEF9",
"s c #72CEF9",
"d c #73CEF9",
"f c #72CFF9",
"g c #73CFF9",
"h c #75CFF9",
"j c #77D0FA",
"k c #79D0F9",
"l c #79D1F9",
"z c #7AD0F8",
"x c #7BD0F8",
"c c #79D1FA",
"v c #88D7FC",
"b c #8CD9FD",
"n c #8FDAFD",
"m c #94DBFD",
"M c #94DCFE",
"N c #95DCFE",
"B c #94DCFF",
"V c #95DCFF",
"C c #95DDFF",
"Z c #96DCFE",
"A c #96DDFE",
"S c #97DDFF",
"D c None",
/* pixels */
"DDDDDDDDDDDDDDDDDDDDDDDDDDDDDDDDDDDDDDDDDDDDDDDDDDDDDDDDDDDDDDDD",
"DDDDDDDDDDDDDDDDDDDDDDDDDDDDDDDDDDDDDDDDDDDDDDDDDDDDDDDDDDDDDDDD",
"DDDDDDDDDDDDDDDDDDDDDDDDDDDDDDDDDDDDDDDDDDDDDDDDDDDDDDDDDDDDDDDD",
"DDDDDDDDDDDDDDDDDDDDDDDDDDDDDDDDDDDDDDDDDDDDDDDDDDDDDDDDDDDDDDDD",
"DDDDDDDDDDDDDDDDDDDDDDDDDDDDDDDDDDDDDDDDDDDDDDDDDDDDDDDDDDDDDDDD",
"DDDDDDDDDDDDDDDDDDDDDDDDDDDDDDDDDDDDDDDDDDDDDDDDDDDDDDDDDDDDDDDD",
"DDDDDDDDDDDDDDDDDDDDDDDDDDDDDDDDDDDDDDDDDDDDDDDDDDDDDDDDDDDDDDDD",
"DDDDDDDDDDDDDDDDDDDDDDDDDDDDDDDDDDDDDDDDDDDDDDDDDDDDDDDDDDDDDDDD",
"DDDDDDDDDDDDDDDDDDDDDDDDDDDDDDDDDDDDDDDDDDDDDDDDDDDDDDDDDDDDDDDD",
"DDDDBBBBBBSSSSSSSSSSSDDDDDDDDDDDDDDDDDDDDDDDDDDDDDDDDDDDDDDDDDDD",
"DDDSSSSSSSSSSSSSSSSSSSDDDDDDDDDDDDDDDDDDDDDDDDDDDDDDDDDDDDDDDDDD",
"DDDSSSSSSSSSSSSSSSSSSSSDDDDDDDDDDDDDDDDDDDDDDDDDDDDDDDDDDDDDDDDD",
"DDDSSSSSSSSSSSSSSSSSSSSDDDDDDDDDDDDDDDDDDDDDDDDDDDDDDDDDDDDDDDDD",
"DDDSSSSSSSSSSSSSSSSSSSSSSSSSSSSSSSSSSSSSSSSSSSSSSSSSSSSSSSSDDDDD",
"DDDSSSSSSSSSSSSSSSSSSSSSSSSSSSSBSSSSSSSSSSSSSSSSSSSSSSSSSSSSSDDD",
"DDDSSSSSSSSSSSSSSSSSSSSSZSmSZZZmSmSZSSSSSSSSSSSSSSSSSSSSSSSSSDDD",
"DDDmjujujujjujjajujafffffffffuffaaaaaaaaaaaujuuffuffufujuaajbBDD",
"DDDuyyyyyy9yy9yyyyyyttyyyyyyyyyyyyyyyyyyyyyyyyuyruyyyyuyyyyyyvDD",
"DDDyyyyyyyyyyyyyyyyyyyyyyyyyyyyyyyyyyyyyyyyyyyyyyyyyyyyyyyyyyfDD",
"DDDuyyyyyyyyyyyyyyyyyyyyyyyyyyyyyyyyyyyyyyyyyyyyyyyyyyyyyyyyyyDD",
"DDDyyyyyyyyyyyyyyyyyyyyyyyyyyyyyyyyyyyyyyyyyyyyyyyyyyyyyyyyyyyDD",
"DDDyyyyyyyyyyyyyyyyyyyyyyyyyyyy26yyyyyyyyyyyyyyyyyyyyyyyyyyyyyDD",
"DDDyyyyyyyyyyyyyyyyyyyyyyyyyyy6  6yyyyyyyyyyyyyyyyyyyyyyyyyyyyDD",
"DDDyyyyyyyyyyyyyyyyyyyyyyyyyr6   O6yyyyyyyyyyyyyyyyyyyyyyyyyyyDD",
"DDDyyyyyyyyyyyyyyyyyyyyyyyyy6      6yyyyyyyyyyyyyyyyyyyyyyyyyyDD",
"DDDyyyyyyyyyyyyyyyyyyyyyyyy3        6yyyyyyyyyyyyyyyyyyyyyyyyyDD",
"DDDyyyyyyyyyyyyyyyyyyyyytt3.  6O     6yyyyyyyyyyyyyyyyyyyyyyyyDD",
"DDDyyyyyyyyyyyyyyyyyyyyyt3.. <y6      6yyyyyyyyyyyyyyyyyyyyyyyDD",
"DDDyyyyyyyyyyyyyyyyyyytt3.   O6< O..   6yyyyyyyyyyyyyyyyyyyyyyDD",
"DDDyyyyyyyyyyyyyyyyyyyt3..   O<66#..    6uyyyyyyyyyyyyyyyyyyyyDD",
"DDDyyyyyyyyyyyyyyyyyyy3..    &tyyy2      6yyyyyyyyyyyyyyyyyyyyDD",
"DDDyyyyyyyyyyyyyyyyyy3..    .6yyy6tq      6yyyyyyyyyyyyyyyyyyyDD",
"DDDyyyyyyyyyyyyyyyyy6     X,rr9yy>Oy       6uyyyyyyyyyyyyyyyyyDD",
"DDDyyyyyyyyyyyyyyyy6      r9>X:yy6 tO      o6yyyyyyyyyyyyyyyyyDD",
"DDDyyyyyyyyyyyyyyy,           &yyyO=O        6ryyyyyyyyyyyyyyyDD",
"DDDyyyyyyyyyyyyyyy&           &yyy<O         &ryyyyyyyyyyyyyyyDD",
"DDDyyyyyyyyyyyyyyyr&         Xrrry2          9yyyyyyyyyyyyyyyyDD",
"DDDyyyyyyyyyyyyyyyr9+        2r6&yq         ryyyyyyyyyyyyyyyyyDD",
"DDDyyyyyyyyyyyyyyyrrrX      &r9  6qO       ryyyyyyyyyyyyyyyyyyDD",
"DDDyyyyyyyyyyyyyyyyuyr      &r&  :y>      ryyyyyyyyyyyyyyyyyyyDD",
"DDDyyyyyyyyyyyyyyyyyyyr+    :rX   r2    o9ryyyyyyyyyyyyyyyyyyyDD",
"DDDyyyyyyyyyyyyyyyyyyyy9o   :r    <r&   rryyyyyyyyyyyyyyyyyyyyDD",
"DDDyyyyyyyyyyyyyyyyyyyyyrX  :r     r2  9yyyyyyyyyyyyyyyyyyyyyyDD",
"DDDyyyyyyyyyyyyyyyyyyyyyr9X X&     O  ryyyyyyyyyyyyyyyyyyyyyyyDD",
"DDDyyyyyyyyyyyyyyyyyyyyyyyrX         ryyyyyyyyyyyyyyyyyyyyyyyyDD",
"DDDyyyyyyyyyyyyyyyyyyyyyyyrro       ryyyyyyyyyyyyyyyyyyyyyyyyyDD",
"DDDyyyyyyyyyyyyyyyyyyyyyyyyrr      rryyyyyyyyyyyyyyyyyyyyyyyyyDD",
"DDDyyyyyyyyyyyyyyyyyyyyyyyyrrr   oryyyyyyyyyyyyyyyyyyyyyyyyyyyDD",
"DDDyyyyyyyyyyyyyyyyyyyyyyyyyyyr XryyyyyyyyyryyyyyyyyyyyyyyyyyyDD",
"DDDyyyyyyyyyyyyyyyyyyyyyyyyyyyrr9yyryyyyyyyyyyyyyyyyyyyyyyyyyyDD",
"DDDyrrrryyyyyryyryuqyyyrrryyryyrryrryyryyyrryyrryryyyyyryrryyyDD",
"DDDyrfffffffpdddfffsfffdfddfdfffhpdddfffhpddffffffffffffdddryyDD",
"DDDyyuffffffpddffffsfffffdffffffpdffffffpdffffffffffffffffpyyyDD",
"DDDyyjcckcccccckcckckkkckkxcxxxcxkxkcckkcckkcckckkcckkcccchyyyDD",
"DDDyyyyyryyyyuyyyyyuyyyyyyyurryyyuyyyyyyyuyyyyyuyuyyryyyryyyyDDD",
"DDDDDDDDDDDDDDDDDDDDDDDDDDDDDDDDDDDDDDDDDDDDDDDDDDDDDDDDDDDDDDDD",
"DDDDDDDDDDDDDDDDDDDDDDDDDDDDDDDDDDDDDDDDDDDDDDDDDDDDDDDDDDDDDDDD",
"DDDDDDDDDDDDDDDDDDDDDDDDDDDDDDDDDDDDDDDDDDDDDDDDDDDDDDDDDDDDDDDD",
"DDDDDDDDDDDDDDDDDDDDDDDDDDDDDDDDDDDDDDDDDDDDDDDDDDDDDDDDDDDDDDDD",
"DDDDDDDDDDDDDDDDDDDDDDDDDDDDDDDDDDDDDDDDDDDDDDDDDDDDDDDDDDDDDDDD",
"DDDDDDDDDDDDDDDDDDDDDDDDDDDDDDDDDDDDDDDDDDDDDDDDDDDDDDDDDDDDDDDD",
"DDDDDDDDDDDDDDDDDDDDDDDDDDDDDDDDDDDDDDDDDDDDDDDDDDDDDDDDDDDDDDDD",
"DDDDDDDDDDDDDDDDDDDDDDDDDDDDDDDDDDDDDDDDDDDDDDDDDDDDDDDDDDDDDDDD",
"DDDDDDDDDDDDDDDDDDDDDDDDDDDDDDDDDDDDDDDDDDDDDDDDDDDDDDDDDDDDDDDD"
};
